X:1
T:В пещере горного короля
T:В пещере горного короля
T: Комп. Э. Григ Арр. Д. Абакшин 
C:Э. Григ
%%score { 1 | ( 2 3 ) } { 4 | 5 } { 6 | 7 } { 8 | 9 }
L:1/8
Q:1/4=70
M:4/4
K:D
V:1 treble nm="Фортепиано" snm="Ф-но"
V:2 treble 
V:3 treble 
V:4 treble nm="Фортепиано" snm="Ф-но"
V:5 treble 
V:6 bass nm="Фортепиано" snm="Ф-но"
V:7 bass 
V:8 bass nm="Фортепиано" snm="Ф-но"
V:9 bass 
V:1
"^\n" z8 | z8 | z8 | z8 | z8 | z8[Q:1/4=75] | z8 | z8 | z8 |[Q:1/4=80] z8 | z8 | z8 | z8 | %13
!mp![Q:1/4=85] z8 | z8 | z8 | z8 |[Q:1/4=90]!mf! z8 | z8 | z8 | z8 |[Q:1/4=95] z8 | z8 | z8 | z8 | %25
[Q:1/4=100] z8 | z8 | z8 | z8 |[Q:1/4=105] z8 | z8 | z8 | z8 |[Q:1/4=110]"^\n" z8 | z8 | z8 | z8 | %37
[Q:1/4=115] z8 | z8 | z8 | z8 |[Q:1/4=120] z8 | z8 | z8 | z8 |[Q:1/4=125] z8 | z8 | z8 | z8 | %49
[Q:1/4=130] z4 z2 z!8va(! .f''!8va)! | z2 z!8va(! .^e'' z2 z .=e''!8va)! | z8 | %52
 z4!8va(! d''4!8va)! | z4 z2 z!8va(! .f''!8va)! | z2 z!8va(! .^e'' z2 z .=e''!8va)! | %55
!8va(! b'8!8va)! |!8va(! d''8!8va)! |[Q:1/4=135]!8va(! .f'.^g'.^a'.b' .c''.a' .c''2 | %58
 .d''.^a' .d''2 .c''.a' .c''2 | .f'.[f'^g'].[f'^a'].[f'b'] .[f'c''].[f'a'] .[f'c'']2 | %60
 .[f'd''].[f'^a'] .[f'd'']2 !>![f'c'']4!8va)! |[Q:1/4=140]!8va(! .f'.^g'.^a'.b' .c''.a' .c''2 | %62
 .^d''.^a' .d''2 .c''.a' .c''2 | .f'.[f'^g'].[f'^a'].[f'b'] .[f'c''].[f'a'] .[f'c'']2 | %64
 .[f'^d''].[f'^a'] .[f'd'']2 !>![f'c'']4!8va)! |[Q:1/4=145] z4 z2 z!8va(! .f''!8va)! | %66
 z2 z!8va(! .^e'' z2 z .=e''!8va)! | z8 | z4!8va(! d''4!8va)! |[Q:1/4=150] z8 | z8 | %71
[Q:1/4=155]!8va(! .b'.[b'c''].[b'd''].[b'e''] .[b'f''].[b'd''].[b'f''].[b'b'']!8va)! | %72
!8va(! .[b'f''].[b'd''].[b'f''].[b'b'']!8vb(! B4!8va)!!8vb)! |[Q:1/4=160] z2!8va(! b'2 z4!8va)! | %74
 z2!8va(! b'2 z4!8va)! |[Q:1/4=200] z8 | z8 |[Q:1/4=160] z2!8va(! b'2 z4!8va)! | %78
 z2!8va(! b'2 z4!8va)! | %79
 z/[Q:1/4=200]!8va(! .b/ z/ .c'/ z/ .d'/ z/ .e'/ z/ .f'/ z/ .d'/ z/ .f'/ z/ .b'/ | %80
 z/ .^a'/ z/ .f'/ z/ .a'/ z/ .c''/ .b'4!8va)! |[Q:1/4=160] z2!8va(! b'2 z4!8va)! | %82
 z2!8va(! b'2 z4!8va)! | z8 | %84
 z4 z2!ped!!8va(! !arpeggio![b'd''^e''^g''b'']2!ped-up!!8va)!!ped-up! | z8 | z8 | %87
 z2!8va(! .b'2 z4!8va)! |] %88
V:2
 z8 | z8 | z8 | z8 | z8 | z8 | z8 | z8 | z8 | z8 | z8 | z8 | z8 |!8va(! .f' z z2 .c'' z z2 | %14
 .d'' z z2 .c'' z z2 | .f' z z2 .c'' z z2 | .d'' z z2 .c'' z z2!8va)! | z4 z2 z!8va(! .d''!8va)! | %18
 z2 z!8va(! .c'' z2 z .=c''!8va)! | z8 | z4 z2!8va(! z a'!8va)! | z4 z2 z!8va(! .d''!8va)! | %22
 z2 z!8va(! c'' z2 z =c''!8va)! | z8 | z8 | z2 z!8va(! .f' z2 z .f'!8va)! | %26
 z2 z!8va(! .f' z2 z .f'!8va)! | z2 z!8va(! .f' z2 z .f'!8va)! | z2 z!8va(! .f' z2 z .f'!8va)! | %29
 z4 z2 z!8va(! .f'!8va)! | z2 z!8va(! .=f' z2 z .e'!8va)! | z8 | z4 z2 z!8va(! .a'!8va)! | %33
 z2 z!8va(! .f' z2 z .f'!8va)! | z2 z!8va(! .f' z2 z .f'!8va)! | z2 z!8va(! .f' z2 z .f'!8va)! | %36
 z2 z!8va(! .f' z2 z .f'!8va)! | z4 z2 z!8va(! .c''!8va)! | z2 z!8va(! .d'' z2 z .c''!8va)! | %39
 z4 z2 z!8va(! .c''!8va)! | z2 z!8va(! .d'' z2 z .c''!8va)! | %41
 z2 z!8va(! !trill(!.Tf' z2 z !trill(!.Tf'!8va)! | %42
 z2 z!8va(! !trill(!.T^e' z2 z !trill(!.T=e'!8va)! | %43
 z2 z!8va(! !trill(!.Tf' z2 z !trill(!.Tf'!8va)! | %44
 z2 z!8va(! !trill(!.Tf' z2 z !trill(!.Tf'!8va)! | %45
 z2 z!8va(! !trill(!.Tf' z2 z !trill(!.Tf'!8va)! | z2 z!8va(! !trill(!.T^e' z2 z .=e'!8va)! | %47
!8va(! b'8!8va)! |!8va(! b'8!8va)! |!ff! .b.c'.d'.e' .f'.d' .f'2 | .^e'.c' .e'2 .=e'.=c' .e'2 | %51
 .b.c'.d'.e' .f'.d'f'b' | .a'.f'.d'f' a'4 |!ff! .b.c'.d'.e' .f'.d' .f'2 | %54
 .^e'.c' .e'2 .=e'.=c' .e'2 | .b.c'.d'.e' .f'.d'f'b' | .a'.f'.d'f' a'4 | .f.^g.^a.b .c'.a .c'2 | %58
 .d'.^a .d'2 .c'.a .c'2 | .f.[f^g].[f^a].[fb] .[fc'].[fa] .[fc']2 | %60
 .[fd'].[f^a] .[fd']2 !>![fc']4 | .f.^g.^a.b .c'.a .c'2 | .^d'.^a .d'2 .c'.a .c'2 | %63
 .f.[f^g].[f^a].[fb] .[fc'].[fa] .[fc']2 | .[f^d'].[f^a] .[fd']2 !>![fc']4 | %65
!ff! .b.c'.d'.e' .f'.d' .f'2 | .^e'.c' .e'2 .=e'.=c' .e'2 | .b.c'.d'.e' .f'.d'f'b' | %68
 .a'.f'.d'f' a'4 | .b.[bc'].[bd'].[be'] .[bf'].[bd'] .[bf']2 | %70
 .[b^e'].[bc'] .[be']2 .[b=e'].[b=c'] .[be']2 | .b.[bc'].[bd'].[be'] .[bf'].[bd'].[bf'].[bb'] | %72
 .[bf'].[bd'].[bf'].[bb']!8vb(! B4!8vb)! | z8 | z8 | z8 | z8 | z8 | z8 | z8 | z8 | z8 | z8 | z8 | %84
 z4 !arpeggio![bd'^e'^g'b']2 z2 | z8 | z8 | z8 |] %88
V:3
 x8 | x8 | x8 | x8 | x8 | x8 | x8 | x8 | x8 | x8 | x8 | x8 | x8 |!8va(! x8 | x8 | x8 | x8!8va)! | %17
 x7!8va(! x!8va)! | x3!8va(! x5!8va)! | x8 | x6!8va(! x2!8va)! | x7!8va(! x!8va)! | %22
 x3!8va(! x5!8va)! | x8 | x8 | x3!8va(! x5!8va)! | x3!8va(! x5!8va)! | x3!8va(! x5!8va)! | %28
 x3!8va(! x5!8va)! | x7!8va(! x!8va)! | x3!8va(! x5!8va)! | x8 | x7!8va(! x!8va)! | %33
 x3!8va(! x5!8va)! | x3!8va(! x5!8va)! | x3!8va(! x5!8va)! | x3!8va(! x5!8va)! | x7!8va(! x!8va)! | %38
 x3!8va(! x5!8va)! | x7!8va(! x!8va)! | x3!8va(! x5!8va)! | x3!8va(! x5!8va)! | x3!8va(! x5!8va)! | %43
 x3!8va(! x5!8va)! | x3!8va(! x5!8va)! | x3!8va(! x5!8va)! | x3!8va(! x5!8va)! |!8va(! x8!8va)! | %48
!8va(! x8!8va)! | !>!b4 !>!b4 | !>!b4 !>!b4 | !>!b4 !>!b4 | !>!d'4 !>!d'4 | !>!b4 !>!b4 | %54
 !>!b4 !>!b4 | !>!b4 !>!b4 | !>!d'4 !>!d'4 | x8 | x8 | x8 | x8 | x8 | x8 | x8 | x8 | !>!b4 !>!b4 | %66
 !>!b4 !>!b4 | !>!b4 !>!b4 | !>!d'4 !>!d'4 | x8 | x8 | x8 | x4!8vb(! x4!8vb)! | x8 | x8 | x8 | x8 | %77
 x8 | x8 | x8 | x8 | x8 | x8 | x8 | x8 | x8 | x8 | x8 |] %88
V:4
 z8 |!pp! z8 | z8 | z8 | z8 |!pp! z8 | z8 | z8 | z8 |!mp! z8!ped!!ped-up!!ped!!ped-up! | %10
 z8!ped!!ped-up!!ped!!ped-up! | z8!ped!!ped-up!!ped!!ped-up! | z8!ped!!ped-up!!ped!!ped-up! | %13
 z8!ped!!ped-up!!ped!!ped-up! | z8!ped!!ped-up!!ped!!ped-up! | z8!ped!!ped-up!!ped!!ped-up! | %16
 z8!ped!!ped-up!!ped!!ped-up! | z8 | z8 | z8!ped!!ped-up!!ped!!ped-up! | %20
 z8!ped!!ped-up!!ped!!ped-up! | z8 | z8 | %23
!ped! .B!ped!.c.d.e!ped-up!!ped! .f!ped-up!!ped!.d.f.b!ped-up! | %24
!ped! .f!ped!.d.f.b!ped-up!!ped! B4!ped-up!!ped!!ped-up! |!p! z2!ped! .f2 z2!ped-up! .f2 | %26
 z2 .f2 z2 .f2 | z2!ped! .f2 z2!ped-up!!ped! .f2!ped-up! | %28
 z2!ped! .f2 z2!ped-up!!ped! .f2!ped-up! |!ped! .B.c.d.e!ped-up! .f.d .f2 | .=f.c .f2 .e.=c .e2 | %31
!ped! .B.c.d.e!ped-up!!ped! .f.d.f.b!ped-up! |!ped! .a.f.d.f!ped-up!!ped! a4!ped-up! | %33
 z2 .f2 z2 .f2 | z2 .f2 z2 .f2 | z2 .f2 z2 .f2 | z2 .f2 z2 .f2 | .f.^g.^a.b .c'.a .c'2 | %38
 .d'.^a .d'2 .c'.a .c'2 | .f.^g.^a.b .c'.a .c'2 | .d'.^a .d'2 c'4 |!p! z2!ped! .f2 z2!ped-up! .f2 | %42
 z2 .f2 z2 .f2 | z2!ped! .f2 z2!ped-up!!ped! .f2!ped-up! | %44
 z2!ped! .f2 z2!ped-up!!ped! .f2!ped-up! |!ped! .B.c.d.e!ped-up! .f.d .f2 | .^e.c .e2 .=e.=c .e2 | %47
!ped! .B.c.d.e!ped-up!!ped! .f.d.f.b!ped-up! |"_molto"!<(! .f.d.f.b B4!<)! | %49
!mf! B2 (3!>![df]F[df] B2 (3!>![df]F[df] | B2 (3!>![c^ef]F[cef] B2 (3!>![=c=ef]F[cef] | %51
!mf! B2 (3!>![Bdf]F[Bdf] B2 (3!>![Bdf]F[Bdf] |!mf! B2 (3!>![dfa]A[dfa] B2 (3!>![dfa]A[dfa] | %53
!mf! B2 (3!>![df]F[df] B2 (3!>![df]F[df] | B2 (3!>![c^ef]F[cef] B2 (3!>![=c=ef]F[cef] | %55
!mf! B2 (3!>![Bdf]F[Bdf] B2 (3!>![Bdf]F[Bdf] |!mf! B2 (3!>![dfa]A[dfa] B2 (3!>![dfa]A[dfa] | %57
 z2 (3!>![F^Ac]C[FAc] z2 (3!>![FAc]C[FAc] | z2 (3!>![F^Ad]D[FAd] z2 (3!>![FAc]C[FAc] | %59
 z2 (3!>![F^Ac]C[FAc] z2 (3!>![FAc]C[FAc] | z2 (3!>![F^Ad]D[FAd] z2 (3!>![FAc]C[FAc] | %61
 z2 (3!>![F^Ac]C[FAc] z2 (3!>![FAc]C[FAc] | z2 (3!>![F^A^d]D[FAd] z2 (3!>![FAc]C[FAc] | %63
 z2 (3!>![F^Ac]C[FAc] z2 (3!>![FAc]C[FAc] | z2 (3!>![F^A^d]D[FAd] z2 (3!>![FAc]C[FAc] | %65
!mf! B2 (3!>![df]F[df] B2 (3!>![df]F[df] | B2 (3!>![c^ef]F[cef] B2 (3!>![=c=ef]F[cef] | %67
!mf! B2 (3!>![Bdf]F[Bdf] B2 (3!>![Bdf]F[Bdf] |!mf! B2 (3!>![dfa]A[dfa] B2 (3!>![dfa]A[dfa] | %69
 .B.[Bc].[Bd].[Be] .[Bf].[Bd] .[Bf]2 | .[B^e].[Bc] .[Be]2 .[B=e].[B=c] .[Be]2 | %71
 .B.[Bc].[Bd].[Be] .[Bf].[Bd].[Bf].[Bb] | .[Bf].[Bd].[Bf].[Bb]!8vb(! B,4!8vb)! | %73
 z2!ped! !>![B^de^gb]2 z4!ped-up! | z2!ped! !>![Bdfb]2 z4!ped-up! | .B.c.d.e .f.d.f.b | %76
 .^a.f.a.c' .b4 | z2!ped! !>![Bd^e^gb]2 z4!ped-up! | z2!ped! !>![Bdfb]2 z4!ped-up! | %79
 .B.c.d.e .f.d.f.b | .^a.f.a.c' .b4 | z2!ped! !>![Bd^e^gb]2 z4!ped-up! | %82
 z2!ped! !>![Bd^e^gb]2 z4!ped-up! | z8 | z2!ped! !arpeggio![Bd=f_ab]2 z4!ped-up! | z8 | z8 | %87
 z2!ped! !>![Bdfb]2 z4!ped-up! |] %88
V:5
 [F,F]8 | z/4 .B,.C.D.E.F.DF7/4 | z/4 .^E.CE z =E=CE7/4 | z/4 .B,.C.D.E.F.D.F.B3/4- | %4
 .B/4.A.F.D.F A15/4 | z/4 .B,.C.D.E.F.DF7/4 | z/4 .^E.C .E2 .=E.^B,E7/4 | %7
 z/4 .B,.C.D.E.F.D.F.B3/4- | .B/4.A.F.D.F A15/4 | .F.^G.^A.B .c.A .c2 | .d.^A .d2 .c.A .c2 | %11
 .F.^G.^A.B .c.A .c2 | .d.^A .d2 c4 | .F.^G.^A.B .c.A .c2 | .d.^A .d2 .c.A .c2 | %15
 .F.^G.^A.B .c.A .c2 | .d.^A .d2 c4 | z8 | z8 | .B,.C.D.E .F.D.F.B | .A.F.D.F A4 | z8 | z8 | %23
 .B,.C.D.E .F.D.F.B | .F.D.F.B B,4 |!mf! .B,.C.D.E .F.D .F2 | .^E.C .E2 .=E.=C .E2 | %27
 .B,.C.D.E .F.D.F.B | .A.F.D.F A4 | z2 [DF]2 z2 [DF]2 | z2 [C^EF]2 z2 [=C=EF]2 | %31
 z2 [B,DF]2 z2 [B,DF]2 | z2 [A,DF]2 z2 [A,DF]2 | .F.^G.^A.B .c.A .c2 | .d.^A .d2 .c.A .c2 | %35
 .F.^G.^A.B .c.A .c2 | .d.^A .d2 c4 | z2 [F^Acf]2 z2 [FAcf]2 | z2 [F^Adf]2 z2 [FAcf]2 | %39
 z2 [F^Acf]2 z2 [FAcf]2 | z2 [F^Adf]2 z2 [FAcf]2 |!mf! .B,.C.D.E .F.D .F2 | .^E.C .E2 .=E.=C .E2 | %43
 .B,.C.D.E .F.D.F.B | .A.F.D.F A4 | z2 [DF]2 z2 [DF]2 | z2 [C^EF]2 z2 [=C=EF]2 | %47
 z2 [B,DF]2 z2 [B,DF]2 | z2 [B,DF]2 z2 [B,DF]2 | z2 !>![DF]2 z2 !>![DF]2 | %50
 z2 !>![C^E]2 z2 !>![=C=E]2 | z2 !>![DF]2 z2 !>![DF]2 | z2 !>![FA]2 z2 !>![FA]2 | %53
 z2 !>![DF]2 z2 !>![DF]2 | z2 !>![C^E]2 z2 !>![=C=E]2 | z2 !>![DF]2 z2 !>![DF]2 | %56
 z2 !>![FA]2 z2 !>![FA]2 | F2 !>![^A,C]2 F2 !>![A,C]2 | D2 [F,^A,D]2 F2 !>![A,C]2 | %59
 F2 !>![^A,C]2 F2 !>![A,C]2 | D2 [F,^A,D]2 F2 !>![A,C]2 | F2 !>![^A,C]2 F2 !>![A,C]2 | %62
 D2 [F,^A,^D]2 F2 !>![A,C]2 | F2 !>![^A,C]2 F2 !>![A,C]2 | D2 [F,^A,^D]2 F2 !>![A,C]2 | %65
 z2 !>![DF]2 z2 !>![DF]2 | z2 !>![C^E]2 z2 !>![=C=E]2 | z2 !>![DF]2 z2 !>![DF]2 | %68
 z2 !>![FA]2 z2 !>![FA]2 | z8 | z8 | .B,.[B,C].[B,D].[B,E] .[B,F].[B,D].[B,F].[B,B] | %72
 .[B,F].[B,D].[B,F].[B,B]!8vb(! B,,4!8vb)! | z8 | z8 | z8 | z8 | z8 | z8 | z8 | z8 | z8 | z8 | z8 | %84
 !arpeggio![B,D=F_AB]2 z2 z4 | z8 | z8 | z8 |] %88
V:6
 z8 |!mp! z8!ped!!ped-up!!ped! | z8!ped!!ped-up!!ped!!ped-up! | z8!ped!!ped-up!!ped!!ped-up! | %4
 z8!ped!!ped-up!!ped!!ped-up! |!mp! z8!ped!!ped-up!!ped!!ped-up! | z8!ped!!ped-up!!ped!!ped-up! | %7
 z8!ped!!ped-up!!ped!!ped-up! | z8!ped!!ped-up!!ped!!ped-up! |!p! z8!ped!!ped-up!!ped!!ped-up! | %10
 z8!ped-up!!ped!!ped-up!!ped! | z8!ped-up!!ped!!ped-up!!ped! | z8!ped-up!!ped! | %13
 z8!ped!!ped-up!!ped! | z8!ped-up!!ped!!ped-up!!ped! | z8!ped-up!!ped! | z8!ped!!ped-up! | %17
 z8!ped!!ped-up!!ped!!ped-up! | z8!ped!!ped-up!!ped!!ped-up! | z8 | z8 | %21
!ped! .B,,!ped!.C,.D,.E,!ped-up!!ped! .F,!ped-up!!ped!.D, .F,2!ped-up! | %22
!ped! .=F,!ped!.C, .F,2!ped-up!!ped! .E,!ped-up!!ped!.=C, .E,2!ped-up! |!mf! .B,,2 .B,2 .A,2 .G,2 | %24
 .F,2 .E,2 .D,2 .C,2 |!mp! z2 F,/^E,/F, z2 F,/E,/F, | z2 F,/^E,/F, z2 F,/E,/F, | %27
 z2 F,/^E,/F, z2 F,/E,/F, | z2 [F,A,]/^G,/A, z2 [F,A,]/G,/A, | %29
 z2 (5:4:5F,/G,/F,/^E,/F,/ z2 (5:4:5F,/G,/F,/E,/F,/ | %30
 z2 (5:4:5F,/G,/F,/^E,/F,/ z2 (5:4:5F,/G,/F,/E,/F,/ | %31
 z2 (5:4:5F,/G,/F,/^E,/F,/ z2 (5:4:5F,/G,/F,/E,/F,/ | %32
 z2 (5:4:5[F,A,]/B,/A,/^G,/A,/ z2 (5:4:5[F,A,]/B,/A,/G,/A,/ | z2 .[F,^A,C]2 z2 .[F,A,C]2 | %34
 z2 .[F,^A,D]2 z2 .[F,A,C]2 | z2 .[F,^A,C]2 z2 .[F,A,C]2 | z2 .[F,^A,D]2 z2 .[F,A,C]2 | %37
 z2 .[F,^A,C]2 z2 .[F,A,C]2 | z2 .[F,^A,D]2 z2 .[F,A,C]2 | z2 .[F,^A,C]2 z2 .[F,A,C]2 | %40
 z2 .[F,^A,D]2 z2 .[F,A,C]2 | z2 !>![D,F,]/^E,/F, z2 !>![D,F,]/E,/F, | %42
 z2 !>![C,^E,F,]/E,/F, z2 !>![=C,=E,F,]/E,/F, | z2 !>![B,,D,F,]/^E,/F, z2 !>![D,F,]/E,/F, | %44
 z2 !>![D,F,A,]/^G,/A, z2 !>![D,F,A,]/G,/A, | z2 !>![D,F,]/^E,/F, z2 !>![D,F,]/E,/F, | %46
 z2 !>![C,^E,F,]/E,/F, z2 !>![=C,=E,F,]/E,/F, | %47
 z2 !>![D,F,]/^E,/F, !>![D,F,]/E,/F, !>![D,F,]/E,/F, | %48
 !>![D,F,]/^E,/F, !>![D,F,]/E,/F, !>![D,F,]/E,/F, !>![D,F,]/E,/F, | %49
 .[B,,B,].[A,,A,].[G,,G,].[F,,F,] .[B,,B,].[A,,A,].[G,,G,].[F,,F,] | %50
 .[B,,B,].[A,,A,].[G,,G,].[F,,F,] .[B,,B,].[A,,A,].[G,,G,].[F,,F,] | %51
 .[B,,B,].[A,,A,].[G,,G,].[F,,F,] .[B,,B,].[A,,A,].[G,,G,].[F,,F,] | %52
 .[D,D].[C,C].[B,,B,].[A,,A,] .[D,D].[C,C].[B,,B,].[A,,A,] | %53
 .[B,,B,].[A,,A,].[G,,G,].[F,,F,] .[B,,B,].[A,,A,].[G,,G,].[F,,F,] | %54
 .[B,,B,].[A,,A,].[G,,G,].[F,,F,] .[B,,B,].[A,,A,].[G,,G,].[F,,F,] | %55
 .[B,,B,].[A,,A,].[G,,G,].[F,,F,] .[B,,B,].[A,,A,].[G,,G,].[F,,F,] | %56
 .[D,D].[C,C].[B,,B,].[A,,A,] .[D,D].[C,C].[B,,B,].[A,,A,] | z8 | z8 | z8 | z8 | z8 | z8 | z8 | %64
 z8 | .[B,,B,].[A,,A,].[G,,G,].[F,,F,] .[B,,B,].[A,,A,].[G,,G,].[F,,F,] | %66
 .[B,,B,].[A,,A,].[G,,G,].[F,,F,] .[B,,B,].[A,,A,].[G,,G,].[F,,F,] | %67
 .[B,,B,].[A,,A,].[G,,G,].[F,,F,] .[B,,B,].[A,,A,].[G,,G,].[F,,F,] | %68
 .[D,D].[C,C].[B,,B,].[A,,A,] .[D,D].[C,C].[B,,B,].[A,,A,] | z2 !>![DF]2 z2 !>![DF]2 | %70
 z2 !>![C^EF]2 z2 !>![=C=EF]2 | z8 | z8 |!ped! .[B,,B,]2 !>![D,=F,^G,B,]2 z4!ped-up! | %74
!ped! .[B,,B,]2 !>![D,F,B,]2 z4!ped-up! | z8 | z8 |!ped! .[B,,B,]2 !>![D,=F,^G,B,]2 z4!ped-up! | %78
!ped! .[B,,B,]2 !>![D,F,B,]2 z4!ped-up! | z8 | z8 |!ped! .[B,,B,]2 !>![D,=F,^G,B,]2 z4!ped-up! | %82
!ped! .[B,,B,]2 !>![D,=F,^G,B,]2 z4!ped-up! | z4 z2!ped! !arpeggio![B,,D,^E,^G,B,]2!ped-up! | z8 | %85
 z8 | z8 |!ped! z2 !>![B,,D,F,B,]2 z4!ped-up! |] %88
V:7
 z8 | .B,,,.C,,.D,,.E,, .F,,.D,, F,,2 | .^E,,.C,, E,,2 =E,,=C,, E,,2 | %3
 .B,,,.C,,.D,,.E,, .F,,.D,,.F,,.B,, | .A,,.F,,.D,,.F,, A,,4 | .B,,,.C,,.D,,.E,, .F,,.D,, .F,,2 | %6
 .^E,,.C,, .E,,2 .=E,,.=C,, .E,,2 | .B,,,.C,,.D,,.E,, .F,,.D,,.F,,.B,, | .A,,.F,,.D,,.F,, A,,4 | %9
 z/4 .F,,.^G,,.^A,,.B,,.C,.A,,.C,7/4 | z/4 .D,.^A,, .D,2 .C,.A,,.C,7/4 | %11
 z/4 .F,,.^G,,.^A,,.B,,.C,.A,,.C,7/4 | z/4 .D,.^A,, .D,2 C,15/4 | %13
 z/4 .F,,.^G,,.^A,,.B,,.C,.A,,.C,7/4 | z/4 .D,.^A,, .D,2 .C,.A,,.C,7/4 | %15
 z/4 .F,,.^G,,.^A,,.B,,.C,.A,,.C,7/4 | z/4 .D,.^A,, .D,2 C,15/4 | %17
 .B,,,.C,,.D,,.E,, .F,,.D,, .F,,2 | .^E,,.C,, .E,,2 .=E,,.=C,, .E,,2 | z8 | z8 | %21
 .B,,,.C,,.D,,.E,, .F,,.D,, .F,,2 | .^E,,.C,, .E,,2 .=E,,.=C,, .E,,2 | .B,,,2 .B,,2 .A,,2 .G,,2 | %24
 .F,,2 .E,,2 .D,,2 .C,,2 | .B,,,2 .[B,,D,]2 .B,,,2 .[B,,D,]2 | %26
 .B,,,2 .[B,,C,^E,]2 .B,,,2 .[B,,=C,=E,]2 | .B,,,2 .[B,,D,]2 .B,,,2 .[B,,D,]2 | %28
 .D,,2 .[A,,D,]2 .D,,2 .[A,,D,]2 | .B,,,2 .[B,,D,]2 .B,,,2 .[B,,D,]2 | %30
 .B,,,2 .[B,,C,^E,]2 .B,,,2 .[B,,=C,=E,]2 | .B,,,2 .[B,,D,]2 .B,,,2 .[B,,D,]2 | %32
 .D,,2 .[A,,D,]2 .D,,2 .[A,,D,]2 | .F,,2 C,/^B,,/C, .F,,2 C,/B,,/C, | %34
 .D,,2 D,/C,/D, .F,,2 C,/^B,,/C, | .F,,2 C,/^B,,/C, .F,,2 C,/B,,/C, | %36
 .D,,2 D,/C,/D, .F,,2 C,/^B,,/C, | .F,,2 (5:4:5C,/D,/C,/^B,,/C,/ .F,,2 (5:4:5C,/D,/C,/B,,/C,/ | %38
 .D,,2 (5:4:5D,/E,/D,/C,/D,/ .F,,2 (5:4:5C,/D,/C,/^B,,/C,/ | %39
 .F,,2 (5:4:5C,/D,/C,/^B,,/C,/ .F,,2 (5:4:5C,/D,/C,/B,,/C,/ | %40
 .D,,2 (5:4:5D,/E,/D,/C,/D,/ .F,,2 (5:4:5C,/D,/C,/^B,,/C,/ | %41
 !>![B,,,F,,]/^E,,/F,, z2 !>![B,,,F,,]/E,,/F,, z2 | %42
 !>![B,,,F,,]/^E,,/F,, z2 !>![B,,,F,,]/E,,/F,, z2 | %43
 !>![B,,,F,,]/^E,,/F,, z2 !>![B,,,F,,]/E,,/F,, z2 | %44
 !>![D,,A,,]/^G,,/A,, z2 !>![D,,A,,]/G,,/A,, z2 | %45
 !>![B,,,F,,]/^E,,/F,, z2 !>![B,,,F,,]/E,,/F,, z2 | %46
 !>![B,,,F,,]/^E,,/F,, z2 !>![B,,,F,,]/E,,/F,, z2 | %47
 !>![B,,,F,,]/^E,,/F,, B,,2 [A,,B,,]2 [G,,B,,]2 | [F,,B,,]2 [E,,B,,]2 [D,,B,,]2 [C,,B,,]2 | z8 | %50
 z8 | z8 | z8 | z8 | z8 | z8 | z8 | %57
 .[F,,F,].[E,,E,].[D,,D,].[C,,C,] .[F,,F,].[E,,E,].[D,,D,].[C,,C,] | %58
 .[D,,D,].[C,,C,].[D,,D,].[E,,E,] .[F,,F,].[E,,E,].[D,,D,].[C,,C,] | %59
 .[F,,F,].[E,,E,].[D,,D,].[C,,C,] .[F,,F,].[E,,E,].[D,,D,].[C,,C,] | %60
 .[D,,D,].[C,,C,].[D,,D,].[E,,E,] .[F,,F,].[E,,E,].[D,,D,].[C,,C,] | %61
 .[F,,F,].[^E,,^E,].[^D,,^D,].[C,,C,] .[F,,F,].[E,,E,].[D,,D,].[C,,C,] | %62
 .[^D,,^D,].[C,,C,].[D,,D,].[E,,E,] .[F,,F,].[E,,E,].[D,,D,].[C,,C,] | %63
 .[F,,F,].[^E,,^E,].[^D,,^D,].[C,,C,] .[F,,F,].[E,,E,].[D,,D,].[C,,C,] | %64
 .[^D,,^D,].[C,,C,].[D,,D,].[E,,E,] .[F,,F,].[E,,E,].[D,,D,].[C,,C,] | z8 | z8 | z8 | z8 | %69
 .[B,,B,].[A,,A,].[G,,G,].[F,,F,] .[B,,B,].[A,,A,].[G,,G,].[F,,F,] | %70
 .[B,,B,].[A,,A,].[G,,G,].[F,,F,] .[B,,B,].[A,,A,].[G,,G,].[F,,F,] | %71
 .[B,,D,F,B,].[A,,D,F,A,].[G,,D,F,G,].[F,,A,,D,F,] .[B,,D,F,B,].[A,,D,F,A,].[G,,D,F,G,].[F,,A,,D,F,] | %72
 .[B,,D,F,B,].[A,,D,F,A,].[G,,D,F,G,].[F,,A,,D,F,] .[B,,D,F,B,].[A,,D,F,A,].[G,,D,F,G,].[F,,A,,D,F,] | %73
 z8 | z8 | .G,,2 .[D,G,]2 .F,,2 .[D,F,]2 | .[F,,,F,,]2 .[C,F,]2 .[B,,,B,,]2 .[D,F,]2 | z8 | z8 | %79
 .G,,2 .[D,G,]2 .F,,2 .[D,F,]2 | .[F,,,F,,]2 .[C,F,]2 .[B,,,B,,]2 .[D,F,]2 | z8 | z8 | %83
 z2 z2 !arpeggio![B,,,D,,=F,,^G,,B,,]2 z2 | z8 | z8 | z8 | z8 |] %88
V:8
 z8 | z8 | z8 | z8 | z8 |!mp!!8vb(! B,,,,4!8va(! B,,4!8vb)!!8va)! | %6
!8vb(! B,,,,4!8va(! B,,4!8vb)!!8va)! |!8vb(! B,,,,4!8va(! B,,4!8vb)!!8va)! | %8
!8vb(! D,,,4!8va(! D,4!8vb)!!8va)! |!8vb(! F,,,4 F,,4!8vb)! |!8vb(! D,,4 C,,4!8vb)! | %11
!8vb(! F,,,4 F,,4!8vb)! |!8vb(! D,,4 C,,4!8vb)! |!8vb(! F,,,4 F,,4!8vb)! |!8vb(! D,,4 C,,4!8vb)! | %15
!8vb(! F,,,4 F,,4!8vb)! |!8vb(! D,,4 C,,4!8vb)! |!8vb(! B,,,,2 B,,,2 B,,,,2 B,,,2!8vb)! | %18
!8vb(! B,,,,2 B,,,2 B,,,,2 B,,,2!8vb)! |!8vb(! B,,,,2 B,,,2 B,,,,2 B,,,2!8vb)! | %20
!8vb(! B,,,,2 A,,,2!8vb(! D,,,2 D,,2!8vb)!!8vb)! |!8vb(! B,,,,2 B,,,2 B,,,,2 B,,,2!8vb)! | %22
!8vb(! B,,,,2 B,,,2 B,,,,2 B,,,2!8vb)! |!8vb(! B,,,,2 B,,,2 A,,,,2 G,,,2!8vb)! | %24
!8vb(! F,,,,2 E,,,2 D,,,,2 C,,,2!8vb)! |!8vb(! B,,,,2 B,,,2 B,,,,2 B,,,2!8vb)! | %26
!8vb(! B,,,,2 B,,,2 B,,,,2 B,,,2!8vb)! |!8vb(! B,,,,2 B,,,2 B,,,,2 B,,,2!8vb)! | %28
!8vb(! B,,,,2 A,,,2 D,,,2 D,,2!8vb)! |!8vb(! B,,,,2 B,,,2 B,,,,2 B,,,2!8vb)! | %30
!8vb(! B,,,,2 B,,,2 B,,,,2 B,,,2!8vb)! |!8vb(! B,,,,2 B,,,2 B,,,,2 B,,,2!8vb)! | %32
!8vb(! B,,,,2 B,,,2 B,,,,2 B,,,2!8vb)! |!8vb(! F,,,2 F,,2 F,,,2 F,,2!8vb)! | %34
!8vb(! D,,,2 D,,2 F,,,2 F,,2!8vb)! |!8vb(! F,,,2 F,,2 F,,,2 F,,2!8vb)! | %36
!8vb(! D,,,2 D,,2 F,,,2 F,,2!8vb)! |!8vb(! F,,,2 F,,2 F,,,2 F,,2!8vb)! | %38
!8vb(! D,,,2 D,,2 F,,,2 F,,2!8vb)! |!8vb(! F,,,2 F,,2 F,,,2 F,,2!8vb)! | %40
!8vb(! D,,,2 D,,2 F,,,2 F,,2!8vb)! |!8vb(! F,,,2 F,,2 F,,,2 F,,2!8vb)! | %42
!8vb(! F,,,2 F,,2 F,,,2 F,,2!8vb)! |!8vb(! F,,,2 F,,2 F,,,2 F,,2!8vb)! | %44
!8vb(! A,,,2 A,,2 F,,,2 F,,2!8vb)! |!8vb(! F,,,2 F,,2 F,,,2 F,,2!8vb)! | %46
!8vb(! F,,,2 F,,2 F,,,2 F,,2!8vb)! |!8vb(! F,,,2 B,,,2 A,,,B,,,G,,,B,,,!8vb)! | %48
!8vb(! F,,,B,,,E,,,B,,, D,,,B,,,C,,,B,,,!8vb)! | %49
!ff!!8vb(! B,,,,B,,,B,,,,B,,, B,,,,B,,,B,,,,B,,,!8vb)! | %50
!8vb(! B,,,,B,,,B,,,,B,,, B,,,,B,,,B,,,,B,,,!8vb)! | %51
!8vb(! B,,,,B,,,B,,,,B,,, B,,,,B,,,B,,,,B,,,!8vb)! | %52
!8vb(! B,,,,B,,,B,,,,B,,, B,,,,B,,,B,,,,B,,,!8vb)! | %53
!8vb(! B,,,,B,,,B,,,,B,,, B,,,,B,,,B,,,,B,,,!8vb)! | %54
!8vb(! B,,,,B,,,B,,,,B,,, B,,,,B,,,B,,,,B,,,!8vb)! | %55
!8vb(! B,,,,B,,,B,,,,B,,, B,,,,B,,,B,,,,B,,,!8vb)! | %56
!8vb(! B,,,,B,,,B,,,,B,,, B,,,,B,,,B,,,,B,,,!8vb)! | %57
!8vb(! B,,,,B,,,B,,,,B,,, B,,,,B,,,B,,,,B,,,!8vb)! | %58
!8vb(! B,,,,B,,,B,,,,B,,, B,,,,B,,,B,,,,B,,,!8vb)! | %59
!8vb(! B,,,,B,,,B,,,,B,,, B,,,,B,,,B,,,,B,,,!8vb)! | %60
!8vb(! B,,,,B,,,B,,,,B,,, B,,,,B,,,B,,,,B,,,!8vb)! | %61
!8vb(! B,,,,B,,,B,,,,B,,, B,,,,B,,,B,,,,B,,,!8vb)! | %62
!8vb(! B,,,,B,,,B,,,,B,,, B,,,,B,,,B,,,,B,,,!8vb)! | %63
!8vb(! B,,,,B,,,B,,,,B,,, B,,,,B,,,B,,,,B,,,!8vb)! | %64
!8vb(! B,,,,B,,,B,,,,B,,, B,,,,B,,,B,,,,B,,,!8vb)! | %65
!ff!!8vb(! B,,,,B,,,B,,,,B,,, B,,,,B,,,B,,,,B,,,!8vb)! | %66
!8vb(! B,,,,B,,,B,,,,B,,, B,,,,B,,,B,,,,B,,,!8vb)! | %67
!8vb(! B,,,,B,,,B,,,,B,,, B,,,,B,,,B,,,,B,,,!8vb)! | %68
!8vb(! B,,,,B,,,B,,,,B,,, B,,,,B,,,B,,,,B,,,!8vb)! | %69
!8vb(! B,,,,/B,,,/B,,,,/B,,,/ B,,,,/B,,,/B,,,,/B,,,/ B,,,,/B,,,/B,,,,/B,,,/ B,,,,/B,,,/B,,,,/B,,,/!8vb)! | %70
!8vb(! B,,,,/B,,,/B,,,,/B,,,/ B,,,,/B,,,/B,,,,/B,,,/ B,,,,/B,,,/B,,,,/B,,,/ B,,,,/B,,,/B,,,,/B,,,/!8vb)! | %71
!8vb(! B,,,,/B,,,/B,,,,/B,,,/ B,,,,/B,,,/B,,,,/B,,,/ B,,,,/B,,,/B,,,,/B,,,/ B,,,,/B,,,/B,,,,/B,,,/!8vb)! | %72
!8vb(! B,,,,/B,,,/B,,,,/B,,,/ B,,,,/B,,,/B,,,,/B,,,/ B,,,,/B,,,/B,,,,/B,,,/ B,,,,/B,,,/B,,,,/B,,,/!8vb)! | %73
!8vb(! [B,,,,B,,,]8!8vb)! |!8vb(! [B,,,,B,,,]8!8vb)! | z8 | z8 |!8vb(! [B,,,,B,,,]8!8vb)! | %78
!8vb(! [B,,,,B,,,]8!8vb)! | z8 | z8 |!8vb(! [B,,,,B,,,]8!8vb)! |!8vb(! [B,,,,B,,,]8!8vb)! | %83
!8vb(! !>![B,,,,B,,,]2!ped! !arpeggio![B,,,,D,,,=F,,,^G,,,B,,,]6!ped-up!!8vb)! | z8 | %85
!p!!<(!!ped! .B,,,/4.B,,/4.B,,,/4.B,,/4.B,,,/4.B,,/4.B,,,/4.B,,/4 .B,,,/4.B,,/4.B,,,/4.B,,/4.B,,,/4.B,,/4.B,,,/4.B,,/4 .B,,,/4.B,,/4.B,,,/4.B,,/4.B,,,/4.B,,/4.B,,,/4.B,,/4 .B,,,/4.B,,/4.B,,,/4.B,,/4.B,,,/4.B,,/4.B,,,/4.B,,/4!ped-up! | %86
 .B,,,/4.B,,/4.B,,,/4.B,,/4.B,,,/4.B,,/4.B,,,/4.B,,/4 .B,,,/4.B,,/4.B,,,/4.B,,/4.B,,,/4.B,,/4.B,,,/4.B,,/4 .B,,,/4.B,,/4.B,,,/4.B,,/4.B,,,/4.B,,/4.B,,,/4.B,,/4 .B,,,/4.B,,/4.B,,,/4.B,,/4.B,,,/4.B,,/4.B,,,/4!ff!.B,,/4!<)! | %87
!8vb(! !>![B,,,,B,,,]8!8vb)! |] %88
V:9
 [F,,,F,,]8 | z8 | z8 | z8 | z8 | z8 | z8 | z8 | z8 | z8 | z8 | z8 | z8 | z8 | z8 | z8 | z8 | z8 | %18
 z8 | z8 | z8 | z8 | z8 | z8 | z8 | z8 | z8 | z8 | z8 | z8 | z8 | z8 | z8 | z8 | z8 | z8 | z8 | %37
 z8 | z8 | z8 | z8 | z8 | z8 | z8 | z8 | z8 | z8 | z8 | z8 | z8 | z8 | z8 | z8 | z8 | z8 | z8 | %56
 z8 | z8 | z8 | z8 | z8 | z8 | z8 | z8 | z8 | z8 | z8 | z8 | z8 | z8 | z8 | z8 | z8 | z8 | z8 | %75
 z8 | z8 | z8 | z8 | z8 | z8 | z8 | z8 | z8 | z8 |!8vb(! z8 | z8!8vb)! | z8 |] %88

